X:295
T:Ashley's Hornpipe. WM043
O:england
M:4/4
L:1/8
Q:180
S:Wm.Mittell,1799
R:Hornpiope
A:Kent
N:Key Signature of Dmaj in MS.
K:G
""GABc dBAG|agfee2-d2|BdBG cecA|BdBG GFED|
GAB-c dBAG|agfee2-d2|BdBG decA|G2F2G4:|
|:defg fafd|gbge fafd|defg agfe|BdBG FAFD|
BdBG cecA|fafd gbge|dgfe dcBA|G2F2G4:|]
